src/svg/logo-mark.svg

<svg viewBox="0 0 64.68 40" xmlns="http://www.w3.org/2000/svg"><path d="m5.67 15.72h53.28v22.79h-53.28z" fill="#bf9de0"/><path d="m60.45 40h-56.27v-25.77h56.27zm-53.29-3h50.3v-19.79h-50.3z" fill="#373738"/><path d="m17.02 24.83 10.19-10.25h-20.39z" fill="#fff"/><path d="m17 26.94-13.77-13.86h27.57zm-6.59-10.87 6.59 6.64 6.61-6.64z" fill="#373738"/><path d="m29.7 27.46 11.35-11.39h-22.74z" fill="#fff"/><path d="m29.7 29.58-15-15h29.94zm-7.79-12 7.79 7.79 7.75-7.79z" fill="#373738"/><path d="m37.21 1.49a4.83 4.83 0 0 1 0 .85 5.14 5.14 0 0 1 -4.93 5.37 5.14 5.14 0 0 1 -4.93-5.37c0-.3 0-.55 0-.85h-26v14.23h61.83v-14.23z" fill="#7c5cd1"/><path d="m64.68 17.21h-64.68v-17.21h29v1.49.56s0 .19 0 .29a3.68 3.68 0 0 0 3.43 3.88 3.68 3.68 0 0 0 3.43-3.88 3.49 3.49 0 0 0 0-.6l-.41-1.74h29.23zm-61.68-2.98h58.69v-11.23h-23a6.61 6.61 0 0 1 -6.35 6.2 6.61 6.61 0 0 1 -6.39-6.2h-22.95z" fill="#373738"/></svg>

<svg xmlns="http://www.w3.org/2000/svg" viewBox="0 0 64.68 40"><title>logo-mark</title><g id="e9694939-3bf6-4b74-9c43-f15bbff1b472" data-name="Layer 2"><g id="676ed455-d8a0-449d-bd19-5ef8be375519" data-name="Content"><rect x="5.67" y="15.72" width="53.28" height="22.79" fill="#bf9de0"/><path d="M60.45,40H4.18V14.23H60.45ZM7.16,37h50.3V17.21H7.16Z" fill="#373738"/><polygon points="17.02 24.83 27.21 14.58 6.82 14.58 17.02 24.83" fill="#fff"/><path d="M17,26.94,3.23,13.08H30.8ZM10.41,16.07,17,22.71l6.61-6.64Z" fill="#373738"/><polygon points="29.7 27.46 41.05 16.07 18.31 16.07 29.7 27.46" fill="#fff"/><path d="M29.7,29.58l-15-15H44.64Zm-7.79-12,7.79,7.79,7.75-7.79Z" fill="#373738"/><path d="M37.21,1.49a4.83,4.83,0,0,1,0,.85,5.14,5.14,0,0,1-4.93,5.37,5.14,5.14,0,0,1-4.93-5.37c0-.3,0-.55,0-.85h-26V15.72H63.18V1.49Z" fill="#7c5cd1"/><path d="M64.68,17.21H0V0H29V1.49c0,.2,0,.38,0,.56s0,.19,0,.29a3.68,3.68,0,0,0,3.43,3.88,3.68,3.68,0,0,0,3.43-3.88,3.49,3.49,0,0,0,0-.6L35.45,0H64.68ZM3,14.23H61.69V3h-23A6.61,6.61,0,0,1,32.34,9.2,6.61,6.61,0,0,1,25.95,3H3Z" fill="#373738"/></g></g></svg>
